web/packages/design/src/ResourceIcon/assets/podigee.svg

<svg width="72" height="72" viewBox="0 0 72 72" fill="none" xmlns="http://www.w3.org/2000/svg">
<g clip-path="url(#clip0_16965_14039)">
<path d="M36 72.002C55.8823 72.002 72 55.8847 72 36.002C72 16.1196 55.8823 0.00195312 36 0.00195312C16.1177 0.00195312 0 16.1196 0 36.002C0 55.8847 16.1177 72.002 36 72.002Z" fill="#FF5630"/>
<path d="M18.8742 28.6406H16.6249C15.8391 28.6406 15.4463 29.034 15.4463 29.8187V41.2791C15.4463 42.0648 15.8391 42.4572 16.6249 42.4572H18.8742C19.659 42.4572 20.0523 42.0648 20.0523 41.2791V29.8187C20.0523 29.034 19.659 28.6406 18.8742 28.6406Z" fill="white"/>
<path d="M28.0606 19.3813H25.8113C25.0256 19.3813 24.6328 19.7747 24.6328 20.5594V34.6497C24.6328 35.435 25.0256 35.8284 25.8113 35.8284H28.0606C28.8456 35.8284 29.2388 35.435 29.2388 34.6497V20.5594C29.2388 19.7747 28.8456 19.3813 28.0606 19.3813Z" fill="white"/>
<path d="M35.0004 10.9888C34.2146 10.9888 33.8223 11.3821 33.8223 12.1669V45.7442C33.8223 46.53 34.2146 46.9223 35.0004 46.9223H37.2497C38.035 46.9223 38.4282 46.53 38.4282 45.7442V12.1669C38.4282 11.3821 38.035 10.9888 37.2497 10.9888H35.0004Z" fill="white"/>
<path d="M46.4349 36.0469H44.1854C43.3998 36.0469 43.0068 36.4403 43.0068 37.225V59.1623C43.0068 59.9484 43.3998 60.3408 44.1854 60.3408H46.4349C47.2196 60.3408 47.613 59.9484 47.613 59.1623V37.225C47.613 36.4403 47.2196 36.0469 46.4349 36.0469Z" fill="white"/>
<path d="M55.6204 36.0469H53.3711C52.5854 36.0469 52.1924 36.4403 52.1924 37.225V48.6853C52.1924 49.4711 52.5854 49.8634 53.3711 49.8634H55.6204C56.4051 49.8634 56.7985 49.4711 56.7985 48.6853V37.225C56.7985 36.4403 56.4051 36.0469 55.6204 36.0469Z" fill="white"/>
<path d="M64.8089 36.0469H62.5596C61.7738 36.0469 61.3809 36.4403 61.3809 37.225V41.2786C61.3809 42.0643 61.7738 42.4567 62.5596 42.4567H64.8089C65.5936 42.4567 65.987 42.0643 65.987 41.2786V37.225C65.987 36.4403 65.5936 36.0469 64.8089 36.0469Z" fill="white"/>
<path d="M9.68772 36.0469H7.43836C6.65262 36.0469 6.25977 36.4403 6.25977 37.225V41.2786C6.25977 42.0643 6.65262 42.4567 7.43836 42.4567H9.68772C10.4725 42.4567 10.8658 42.0643 10.8658 41.2786V37.225C10.8658 36.4403 10.4725 36.0469 9.68772 36.0469Z" fill="white"/>
</g>
<defs>
<clipPath id="clip0_16965_14039">
<rect width="72" height="72.0001" fill="white" transform="translate(0 0.00195312)"/>
</clipPath>
</defs>
</svg>

<svg xmlns="http://www.w3.org/2000/svg" width="72" height="72" fill="none" viewBox="0 0 72 72"><g clip-path="url(#clip0_16965_14039)"><path fill="#ff5630" d="M36 72.002c19.882 0 36-16.117 36-36s-16.118-36-36-36-36 16.118-36 36 16.118 36 36 36"/><path fill="#fff" d="M18.874 28.64h-2.25q-1.178 0-1.178 1.179v11.46q0 1.178 1.179 1.178h2.25q1.177 0 1.177-1.178V29.82q0-1.178-1.178-1.178m9.186-9.261h-2.249q-1.178.001-1.178 1.178v14.09q0 1.18 1.178 1.18h2.25q1.178 0 1.178-1.18V20.56q0-1.177-1.178-1.178M35 10.989q-1.178 0-1.178 1.178v33.577q0 1.178 1.178 1.178h2.25q1.178 0 1.178-1.178V12.167q0-1.178-1.178-1.178zm11.435 25.058h-2.25q-1.178 0-1.178 1.178v21.937q0 1.179 1.178 1.179h2.25q1.178 0 1.178-1.179V37.225q0-1.178-1.178-1.178m9.185 0h-2.249q-1.179 0-1.179 1.178v11.46q0 1.179 1.18 1.178h2.248q1.178 0 1.178-1.178v-11.46q0-1.178-1.178-1.178m9.189 0h-2.25q-1.178 0-1.178 1.178v4.054q0 1.178 1.179 1.178h2.249q1.178 0 1.178-1.178v-4.054q0-1.178-1.178-1.178m-55.121 0h-2.25q-1.178 0-1.178 1.178v4.054q0 1.178 1.178 1.178h2.25q1.177 0 1.178-1.178v-4.054q0-1.178-1.178-1.178"/></g><defs><clipPath id="clip0_16965_14039"><path fill="#fff" d="M0 .002h72v72H0z"/></clipPath></defs></svg>
